rospo-icon-theme-classic-common/24x24/apps/librecad.svg

<svg height="24" viewBox="0 0 24 24" width="24" xmlns="http://www.w3.org/2000/svg"><circle cx="12" cy="12.5" opacity=".2" r="10"/><circle cx="12" cy="12" fill="#8bc34a" r="10"/><path d="m12 2a10 10 0 0 0 -10 10 10 10 0 0 0  .01075.291 10 10 0 0 1 9.98925-9.791 10 10 0 0 1 9.9895 9.709 10 10 0 0 0  .0105-.209 10 10 0 0 0 -10-10z" fill="#fff" opacity=".2"/><circle cx="12" cy="12.5" opacity=".2" r="7"/><circle cx="12" cy="12" fill="#fff" r="7"/><path d="m2.0498047 11.5a10 10 0 0 0 -.0498047 1 10 10 0 0 0  .060547 1h19.889648a10 10 0 0 0  .0498-1 10 10 0 0 0 -.06055-1z" opacity=".2"/><path d="m2.0498047 11a10 10 0 0 0 -.0498047 1 10 10 0 0 0  .0605469 1h19.8896481a10 10 0 0 0  .049805-1 10 10 0 0 0 -.060547-1z" fill="#4f4f4f"/><rect height="6" opacity=".2" rx="1" width="6" x="1" y="9.5"/><rect fill="#4f4f4f" height="6" rx="1" width="6" x="1" y="9"/></svg>

<svg xmlns="http://www.w3.org/2000/svg" width="24" height="24" version="1.1" viewBox="0 0 24 24">
 <circle style="opacity:0.2" cx="12" cy="12.5" r="10"/>
 <circle style="fill:#8bc34a" cx="12" cy="12" r="10"/>
 <path style="opacity:0.2;fill:#ffffff" d="M 12,2 A 10,10 0 0 0 2,12 10,10 0 0 0 2.01075,12.291 10,10 0 0 1 12,2.5 10,10 0 0 1 21.9895,12.209 10,10 0 0 0 22,12 10,10 0 0 0 12,2 Z"/>
 <circle style="opacity:0.2" cx="12" cy="12.5" r="7"/>
 <circle style="fill:#ffffff" cx="12" cy="12" r="7"/>
 <path d="M 2.0498047,11.5 A 10,10 0 0 0 2,12.5 a 10,10 0 0 0 0.060547,1 h 19.889648 a 10,10 0 0 0 0.0498,-1 10,10 0 0 0 -0.06055,-1 z" style="opacity:0.2"/>
 <path style="fill:#4f4f4f" d="M 2.0498047,11 A 10,10 0 0 0 2,12 10,10 0 0 0 2.0605469,13 H 21.950195 A 10,10 0 0 0 22,12 10,10 0 0 0 21.939453,11 Z"/>
 <rect width="6" height="6" x="1" y="9.5" rx="1" ry="1" style="opacity:0.2"/>
 <rect style="fill:#4f4f4f" width="6" height="6" x="1" y="9" rx="1" ry="1"/>
</svg>
